icons/repo-clone-24.svg

<svg width="24" height="24" viewBox="0 0 24 24" fill="none" xmlns="http://www.w3.org/2000/svg">
<path d="M4.375 0.375C2.99429 0.375 1.875 1.49429 1.875 2.875V18.125C1.875 19.5057 2.99429 20.625 4.375 20.625H9.5625C9.97671 20.625 10.3125 20.2892 10.3125 19.875C10.3125 19.4608 9.97671 19.125 9.5625 19.125H4.375C3.82272 19.125 3.375 18.6773 3.375 18.125V16.375C3.375 15.8227 3.82272 15.375 4.375 15.375H10.0625C10.4767 15.375 10.8125 15.0392 10.8125 14.625C10.8125 14.2108 10.4767 13.875 10.0625 13.875H4.375C4.01945 13.875 3.68123 13.9492 3.375 14.083V2.875C3.375 2.32272 3.82271 1.875 4.375 1.875H17.625V7.125C17.625 7.53921 17.9608 7.875 18.375 7.875C18.7892 7.875 19.125 7.53921 19.125 7.125V1.125C19.125 0.710786 18.7892 0.375 18.375 0.375H4.375Z" fill="black"/>
<path fill-rule="evenodd" clip-rule="evenodd" d="M12.375 12.0865C12.375 10.6906 13.3799 9.375 14.8313 9.375H22.875C23.2892 9.375 23.625 9.71079 23.625 10.125V22.875C23.625 23.2892 23.2892 23.625 22.875 23.625H15.375C13.7181 23.625 12.375 22.2819 12.375 20.625V12.0865ZM13.875 20.625C13.875 21.4534 14.5466 22.125 15.375 22.125H22.125V19.125H15.375C14.5466 19.125 13.875 19.7966 13.875 20.625ZM22.125 17.625H15.375C14.8286 17.625 14.3163 17.7711 13.875 18.0263V12.0865C13.875 11.3158 14.3979 10.875 14.8313 10.875H22.125V17.625Z" fill="black"/>
</svg>

<svg xmlns="http://www.w3.org/2000/svg" width="24" height="24" viewBox="0 0 24 24"><path d="M4.375.375a2.5 2.5 0 0 0-2.5 2.5v15.25a2.5 2.5 0 0 0 2.5 2.5h5.187a.75.75 0 1 0 0-1.5H4.375a1 1 0 0 1-1-1v-1.75a1 1 0 0 1 1-1h5.687a.75.75 0 1 0 0-1.5H4.375c-.356 0-.694.074-1 .208V2.875a1 1 0 0 1 1-1h13.25v5.25a.75.75 0 0 0 1.5 0v-6a.75.75 0 0 0-.75-.75h-14Z"/><path d="M12.375 12.087c0-1.396 1.005-2.712 2.456-2.712h8.044a.75.75 0 0 1 .75.75v12.75a.75.75 0 0 1-.75.75h-7.5a3 3 0 0 1-3-3Zm9.75 5.538v-6.75h-7.294c-.433 0-.956.441-.956 1.212v5.939a2.989 2.989 0 0 1 1.5-.401Zm-8.25 3a1.5 1.5 0 0 0 1.5 1.5h6.75v-3h-6.75a1.5 1.5 0 0 0-1.5 1.5Z"/></svg>
